public/images/dev22.svg

<svg width="100" height="100" viewBox="0 0 100 100" fill="none" xmlns="http://www.w3.org/2000/svg">
<path d="M0 71H100V28H0V71Z" fill="#FFA61A"/>
<mask id="mask0_1_7727" style="mask-type:luminance" maskUnits="userSpaceOnUse" x="-36" y="18" width="666" height="855">
<path d="M-35.5653 18.2132H629.652V872.665H-35.5653V18.2132Z" fill="white"/>
</mask>
<g mask="url(#mask0_1_7727)">
<path d="M30.4066 64.3957H27.0718V49.5H30.4066V50.4526C30.824 49.869 31.9 49.309 33.0772 49.309C36.2663 49.309 38.0424 51.9382 38.0424 55.0065C38.0424 58.0736 36.2848 60.6791 33.0968 60.6791C31.9185 60.6791 30.824 60.1191 30.4066 59.5344V64.3957ZM30.4066 56.7833C30.824 57.5385 31.5066 58.0499 32.3903 58.0499C34.0337 58.0499 34.9761 56.7348 34.9761 55.0065C34.9761 53.2533 34.0533 51.9382 32.4098 51.9382C31.5022 51.9382 30.824 52.4744 30.4066 53.2048V56.7833Z" fill="white"/>
<path d="M49.1661 60.2581H45.8314V59.4371C45.414 60.1189 44.2259 60.6789 42.9498 60.6789C40.4966 60.6789 39.1607 59.0725 39.1607 56.6623V49.4998H42.0792V56.0527C42.0792 57.1974 42.6553 57.9763 43.8574 57.9763C44.789 57.9763 45.8314 57.4164 45.8314 56.467V49.4998H49.1661V60.2581Z" fill="white"/>
<path d="M54.1688 64.3957H51.2504V49.5H54.1688V50.4526C54.5862 49.869 55.7025 49.309 56.8797 49.309C60.0688 49.309 61.8656 51.9382 61.8656 55.0065C61.8656 58.0736 60.0775 60.6791 56.8884 60.6791C55.7112 60.6791 54.5862 60.1191 54.1688 59.5344V64.3957ZM54.1688 56.7833C54.5862 57.5385 55.3101 58.0499 56.1928 58.0499C57.8362 58.0499 58.7993 56.7348 58.7993 55.0065C58.7993 53.2533 57.846 51.9382 56.2025 51.9382C55.2949 51.9382 54.5862 52.4744 54.1688 53.2048V56.7833Z" fill="white"/>
<path d="M66.2583 64.3957H63.3398V49.5H66.2583V50.4526C66.6757 49.869 67.8061 49.309 68.9833 49.309C72.1725 49.309 73.9768 51.9382 73.9768 55.0065C73.9768 58.0736 72.1779 60.6791 68.9888 60.6791C67.8116 60.6791 66.6757 60.1191 66.2583 59.5344V64.3957ZM66.2583 56.7833C66.6757 57.5385 67.4138 58.0499 68.2964 58.0499C69.9398 58.0499 70.9105 56.7348 70.9105 55.0065C70.9105 53.2533 69.9464 51.9382 68.3029 51.9382C67.3953 51.9382 66.6757 52.4744 66.2583 53.2048V56.7833Z" fill="white"/>
<path d="M84.8818 56.948C84.4894 59.0172 82.772 60.7132 80.0242 60.7132C76.8361 60.7132 74.7025 58.3829 74.7025 55.0233C74.7025 51.736 76.9405 49.3173 80.0068 49.3173C83.2209 49.3173 85.0177 51.5246 85.0177 54.7137V55.7062H77.6459C77.7438 57.3612 78.6764 58.3117 80.0242 58.3117C81.0557 58.3117 81.8155 57.7755 82.0611 56.948H84.8818ZM77.7188 53.6381H81.9622C81.9383 52.8106 81.2514 51.5926 80.0003 51.5926C78.8231 51.5926 77.9883 52.3963 77.7188 53.6381Z" fill="white"/>
<path d="M87.1023 51.9826H85.4349V49.5001H87.1023V46.6034H90.0208V49.5001H92.5219V51.9826H90.0208V56.7587C90.0208 57.6109 90.4491 58.0004 91.2338 58.0004C91.7002 58.0004 92.1045 57.8548 92.5219 57.6358V60.3135C92.1045 60.5325 91.4556 60.6544 90.6458 60.6544C88.4143 60.6544 87.1023 59.5594 87.1023 57.1481V51.9826Z" fill="white"/>
<path d="M22.4859 42.8802H15.8163V49.5H22.4859V42.8802Z" fill="white"/>
<path d="M12.0641 55.2923H9.9793V53.2231H12.0641V55.2923ZM14.5652 50.7417H7.47821V57.7759H14.5652V50.7417Z" fill="white"/>
<path d="M15.9606 44.5606L11.7498 40.3811L13.3758 38.7671L17.5867 42.9466L15.9606 44.5606Z" fill="white"/>
<path d="M14.4977 52.3494L12.8716 50.7355L16.2042 47.4277L17.8303 49.0417L14.4977 52.3494Z" fill="white"/>
<path d="M12.0641 39.1559H9.9793V37.0867H12.0641V39.1559ZM14.5652 34.6042H7.47821V41.6384H14.5652V34.6042Z" fill="white"/>
</g>
</svg>

<svg xmlns="http://www.w3.org/2000/svg" width="100" height="100" fill="none"><path fill="#FFA61A" d="M0 71h100V28H0z"/><mask id="a" width="666" height="855" x="-36" y="18" maskUnits="userSpaceOnUse" style="mask-type:luminance"><path fill="#fff" d="M-35.565 18.213h665.217v854.452H-35.565z"/></mask><g fill="#fff" mask="url(#a)"><path d="M30.407 64.396h-3.335V49.5h3.335v.953c.417-.584 1.493-1.144 2.67-1.144 3.19 0 4.965 2.63 4.965 5.698 0 3.067-1.757 5.672-4.945 5.672-1.178 0-2.273-.56-2.69-1.145zm0-7.613c.417.755 1.1 1.267 1.983 1.267 1.644 0 2.586-1.315 2.586-3.043 0-1.754-.923-3.069-2.566-3.069-.908 0-1.586.536-2.003 1.267zM49.166 60.258h-3.335v-.82c-.417.68-1.605 1.24-2.881 1.24-2.453 0-3.79-1.605-3.79-4.016V49.5h2.92v6.553c0 1.144.575 1.923 1.777 1.923.932 0 1.974-.56 1.974-1.509V49.5h3.335zM54.169 64.396H51.25V49.5h2.919v.953c.417-.584 1.534-1.144 2.71-1.144 3.19 0 4.987 2.63 4.987 5.698 0 3.067-1.788 5.672-4.978 5.672-1.177 0-2.302-.56-2.72-1.145zm0-7.613c.417.755 1.141 1.267 2.024 1.267 1.643 0 2.606-1.315 2.606-3.043 0-1.754-.953-3.069-2.596-3.069-.908 0-1.617.536-2.034 1.267zM66.258 64.396H63.34V49.5h2.918v.953c.418-.584 1.548-1.144 2.725-1.144 3.19 0 4.994 2.63 4.994 5.698 0 3.067-1.8 5.672-4.988 5.672-1.177 0-2.313-.56-2.73-1.145zm0-7.613c.418.755 1.156 1.267 2.038 1.267 1.644 0 2.614-1.315 2.614-3.043 0-1.754-.964-3.069-2.607-3.069-.908 0-1.627.536-2.045 1.267zM84.882 56.948c-.393 2.07-2.11 3.765-4.858 3.765-3.188 0-5.321-2.33-5.321-5.69 0-3.287 2.237-5.706 5.304-5.706 3.214 0 5.01 2.208 5.01 5.397v.992h-7.371c.098 1.655 1.03 2.606 2.378 2.606 1.032 0 1.791-.536 2.037-1.364zm-7.163-3.31h4.243c-.024-.827-.71-2.045-1.962-2.045-1.177 0-2.012.803-2.281 2.045M87.102 51.983h-1.667V49.5h1.667v-2.897h2.919V49.5h2.5v2.483h-2.5v4.776c0 .852.428 1.241 1.213 1.241.466 0 .87-.145 1.288-.364v2.677c-.418.22-1.066.341-1.876.341-2.232 0-3.544-1.095-3.544-3.506zM22.486 42.88h-6.67v6.62h6.67zM12.064 55.292H9.98v-2.069h2.085zm2.501-4.55H7.478v7.034h7.087z"/><path d="m15.96 44.56-4.21-4.179 1.626-1.614 4.21 4.18zM14.498 52.35l-1.626-1.614 3.332-3.308 1.626 1.614z"/><path d="M12.064 39.156H9.98v-2.07h2.085zm2.501-4.552H7.478v7.034h7.087z"/></g></svg>
